assets/img/Airdrops/noun_Shield_1419420.svg

<svg width="57" height="70" viewBox="0 0 57 70" fill="none" xmlns="http://www.w3.org/2000/svg">
<path d="M27.8235 69.8319C27.9916 69.9159 28.2438 70 28.4119 70C28.58 70 28.8322 69.9159 29.0003 69.8319L37.2381 65.5449C49.2585 59.2405 56.7397 46.9679 56.7397 33.3503V11.0748C56.7397 10.5704 56.4035 10.066 55.8991 9.89793L28.8322 0.0630441C28.58 -0.0210147 28.2438 -0.0210147 27.9916 0.0630441L0.840589 9.89793C0.336235 10.066 0 10.5704 0 11.0748V33.2663C0 46.7998 7.48124 59.1564 19.5017 65.4608L27.8235 69.8319ZM2.60582 33.3503V11.9994L28.4119 2.58481L54.218 11.9994V33.3503C54.218 45.9592 47.2411 57.4752 36.0612 63.2753L28.4119 67.2261L20.7625 63.1912C9.49865 57.3912 2.60582 45.9592 2.60582 33.3503Z" fill="#5e2ced"/>
<path d="M27.8235 64.1159C27.9916 64.1999 28.2438 64.284 28.4119 64.284C28.58 64.284 28.8322 64.1999 29.0003 64.1159L34.9685 61.0057C45.3077 55.6259 51.7803 44.9504 51.7803 33.2663V14.6052C51.7803 14.1008 51.444 13.5965 50.9397 13.4284L28.9162 5.35873C28.6641 5.27467 28.3278 5.27467 28.0757 5.35873L6.05224 13.4284C5.54788 13.5965 5.21165 14.1008 5.21165 14.6052V33.2663C5.21165 44.9504 11.6842 55.5419 22.0234 61.0057L27.8235 64.1159ZM7.64935 33.3503V15.5298L28.4119 7.96455L49.1744 15.5298V33.3503C49.1744 44.1099 43.2903 53.8607 33.7076 58.8202L28.4119 61.5941L23.0321 58.8202C13.5335 53.8607 7.64935 44.0258 7.64935 33.3503Z" fill="#5e2ced"/>
<path d="M26.7307 41.1678C27.0669 41.1678 27.4032 40.9997 27.6554 40.7475L43.2062 24.1039C43.7106 23.5995 43.6265 22.7589 43.1222 22.3386C42.6178 21.8343 41.7772 21.9183 41.357 22.4227L26.6467 38.1417L17.2321 29.4836C16.7277 28.9793 15.8871 29.0633 15.4668 29.5677C14.9625 30.0721 15.0465 30.9126 15.5509 31.3329L25.8901 40.8316C26.1423 40.9997 26.3945 41.1678 26.7307 41.1678Z" fill="#5e2ced"/>
</svg>

<?xml version="1.0" encoding="utf-8"?>
<!-- Generator: Adobe Illustrator 24.0.1, SVG Export Plug-In . SVG Version: 6.00 Build 0)  -->
<svg version="1.1" id="Слой_1" xmlns="http://www.w3.org/2000/svg" xmlns:xlink="http://www.w3.org/1999/xlink" x="0px" y="0px"
	 viewBox="0 0 57 70" style="enable-background:new 0 0 57 70;" xml:space="preserve">
<style type="text/css">
	.st0{fill:#FFFFFF;}
</style>
<path class="st0" d="M27.8,69.8c0.2,0.1,0.4,0.2,0.6,0.2s0.4-0.1,0.6-0.2l8.2-4.3c12-6.3,19.5-18.6,19.5-32.2V11.1
	c0-0.5-0.3-1-0.8-1.2L28.8,0.1C28.6,0,28.2,0,28,0.1L0.8,9.9C0.3,10.1,0,10.6,0,11.1v22.2c0,13.5,7.5,25.9,19.5,32.2L27.8,69.8z
	 M2.6,33.4V12l25.8-9.4L54.2,12v21.4c0,12.6-7,24.1-18.2,29.9l-7.6,4l-7.6-4C9.5,57.4,2.6,46,2.6,33.4z"/>
<path class="st0" d="M27.8,64.1c0.2,0.1,0.4,0.2,0.6,0.2s0.4-0.1,0.6-0.2l6-3.1C45.3,55.6,51.8,45,51.8,33.3V14.6
	c0-0.5-0.3-1-0.8-1.2l-22-8.1c-0.3-0.1-0.6-0.1-0.8,0l-22,8.1c-0.5,0.2-0.8,0.7-0.8,1.2v18.7C5.2,45,11.7,55.5,22,61L27.8,64.1z
	 M7.6,33.4V15.5L28.4,8l20.8,7.6v17.8c0,10.8-5.9,20.5-15.5,25.5l-5.3,2.8L23,58.8C13.5,53.9,7.6,44,7.6,33.4z"/>
<path class="st0" d="M26.7,41.2c0.3,0,0.7-0.2,0.9-0.4l15.6-16.6c0.5-0.5,0.4-1.3-0.1-1.8c-0.5-0.5-1.3-0.4-1.8,0.1L26.6,38.1
	l-9.4-8.7c-0.5-0.5-1.3-0.4-1.8,0.1c-0.5,0.5-0.4,1.3,0.1,1.8l10.3,9.5C26.1,41,26.4,41.2,26.7,41.2z"/>
</svg>
